X: 2
T: The Orphan
R: jig
M: 6/8
L: 1/8
K: Emin
~E3 EDE|~G3 AGA|~B3 ABA|GE/F/G EDB|A2 E EDE|~G3 AGA|~B3 ABA|GED E3||~e3 dBA|GAB dBd|edB AGA|~B3 AGF|G2 F EDE|~G3 AGA|~B3 ABA|GED E3||~E3 EDE|~G3 ~A3|~B3 ~A3|~G3 EDG|~E3 EDE|~G3 ~A3|~B3 ~A3|GED E3||


Tune 217	Setting 26005

